!!!!SEGMENT: pl-lzu--m-15111--001-004_noskowski-zygmunt--spiewnik-dla-dzieci-op-34-4-zmarzlak.krn
!!!cenid: 18xx:4701
!!!COM: Noskowski, Zygmunt
!!!COM-rismID: pe106604
!!!CDT: 1846/05/02-1909/07/23
!!!CNT: Polish
!!!GTL: Śpiewnik dla dzieci, op. 34
!!!OTL: 4. Zmarźlak
!!!OMV: 004
!!!PDT: 1890
!!!AGN: Secular; Song; Children
!!!YEC: Copyright 2022 Narodowy Instytut Fryderyka Chopina (https://polishscores.org)
!!!YEM: License CC-BY-4.0 (https://creativecommons.org/licenses/by/4.0)
!!!SMS-siglum: PL-LŹu
!!!SMS-shelfmark: M 15111
!!!SMS-variant:
!!!SMS-altvar:
!!!SMS-shelfwork: 001-004 G
!!!NIFC-rismSourceID: 1001234040
!!!NIFC-rismChildID: 1001234040
!!!NIFC-islandoraID: pl-lzu:5455
!!!URL-pdf-islandora: https://repozytorium.nifc.pl/islandora/object/pl-lzu%3A5455/datastream/PDF/view
!!!URL-scan: https://polish.musicsources.pl/pl/lokalizacje/galeria/druki-muzyczne/23228/11 @EN{Scan on Polish Music Sources Website} @PL{Skany w portalu Dziedzictwo Muzyki Polskiej w otwartym dostępie}
!!!IIIF:
!!!ONB-nifc:
!!!AIN: 1 piano 1 vox
!!!key: D-
!!!OMD: Allegretto.
**kern	**kern	**dynam	**kern	**text	**text	**dynam
*part2	*part2	*part2	*part1	*part1	*part1	*part1
*staff3	*staff2	*staff2,3	*staff1	*staff1	*staff1	*staff1
*I"[Piano]	*I"[Piano]	*	*I"[Voice]	*	*	*
*I'pf	*I'pf	*	*I'V	*	*	*
*Ipiano	*Ipiano	*	*Ivox	*	*	*
*ICklav	*ICklav	*	*ICvox	*	*	*
*IGacomp	*IGacomp	*	*IGsolo	*	*	*
*clefF4	*clefG2	*	*clefG2	*	*	*
*k[b-e-a-d-g-]	*k[b-e-a-d-g-]	*	*k[b-e-a-d-g-]	*	*	*
*D-:	*D-:	*	*D-:	*	*	*
*M2/4	*M2/4	*	*M2/4	*	*	*
=1	=1	=1	=1	=1	=1	=1
!	!LO:TX:a:i:rj:t=Niezbyt prędko.	!LO:DY:rj	!	!	!	!
8D-'\L 8F	8d-'/L 8a-	mf	2r	.	.	.
8D-'\ 8F	8d-'/ 8a-	.	.	.	.	.
8D-'\ 8F	8d-'/ 8a-	.	.	.	.	.
8D-'\J 8F	8d-'/J 8a-	.	.	.	.	.
=2	=2	=2	=2	=2	=2	=2
8D-'\L 8F	8d-'/L 8a-	.	2r	.	.	.
8D-'\ 8F	8d-'/ 8a-	.	.	.	.	.
8D-'\ 8F	8d-'/ 8a-	.	.	.	.	.
8D-'\J 8F	8d-'/J 8a-	.	.	.	.	.
=3!|:	=3!|:	=3!|:	=3!|:	=3!|:	=3!|:	=3!|:
*	*	*	*	*v:1	*v:2	*
!	!	!LO:DY:rj	!LO:TX:a:i:t=con anima	!	!	!LO:DY:rj
8D-'\L 8F	8d-'/L 8a-	p	8a-/	A	A	mf
8D-'\ 8G-	8d-'/ 8b-	.	8b-/	wi-	czy	.
8D-'\ 8F	8d-'/ 8a-	.	8a-/	-dzi-	nie	.
8D-'\J 8F	8d-'/J 8dd-	.	8dd-\	-cie	wiesz,	.
=4	=4	=4	=4	=4	=4	=4
8D-'\L 8F	8d-'/L 8a-	.	8a-/	wy	mi-	.
8D-'\ 8G-	8d-'/ 8b-	.	8b-/	zmar-	-ły	.
8D-'\ 8F	8d-'/ 8a-	.	8a-/	-źla-	bra-	.
8D-'\J 8F	8d-'/J 8dd-	.	8dd-\	-ka,	-cie,	.
!!LO:LB:g=original
=5	=5	=5	=5	=5	=5	=5
*	*	*	*	*v:1	*v:2	*
8D-'\L	8c'/L 8e- 8a-	.	8a-/	Jak	Ja-	.
8D-'\	8B-'/ 8d- 8g-	.	8g-/	się	-ka	.
8D-'\	8A-'/ 8c 8f	.	8f/	to	na	.
8D-'\J	8G-'/J 8B- 8e-	.	8e-/	on	to	.
=6	=6	=6	=6	=6	=6	=6
8DD-'/L	4A-/ 4d- 4f	.	4f/	gnie-	ra-	.
8DD-'/	.	.	.	.	.	.
8DD-'/	8F/ 8A- 8d-	.	8d-/	-wa,	-da,	.
8DD-/J	8r	.	8r	.	.	.
=7	=7	=7	=7	=7	=7	=7
8AA-'/L	8A-'/L 8c 8e-	.	8e-/	W rę-	Gdy	.
8AA-'/	8A-'/ 8c 8f	.	8f/	-ce	mróz	.
8AA-'/	8A-'/ 8c 8e-	.	8e-/	chu-	ści-	.
8AA-'/J	8c'/J 8e- 8a-	.	8a-/	-cha,	-śnie,	.
=8	=8	=8	=8	=8	=8	=8
8D-'\L 8A-	8d-'/L 8f	.	8f/	pod	wi-	.
8D-'\ 8A-	8d-'/ 8g-	.	8g-/	nos	-cher	.
8D-'\ 8A-	8d-'/ 8f	.	8f/	dmu-	świ-	.
8D-'\J 8F	8d-'/J 8a-	.	8a-/	-cha,	-śnie,	.
!!LO:LB:g=original
=9	=9	=9	=9	=9	=9	=9
*	*	*	*	*v:1	*v:2	*
8BB-'/L 8E-	8d-'/L 8gn	.	8gn/	Pios-	Śnieg	.
8BB-'/J 8E-	8d-'/J 8dd-	.	8dd-\	-nek	na	.
8EE-'/L 8E-	8d-'/L 8g 8cc	.	8cc\	nic	zie-	.
8EE-/J 8E-	8d-'/J 8g 8b-	.	8b-\	nie	-mię	.
=10	=10	=10	=10	=10	=10	=10
8AA-'/L 8E-	4c/ 4a- 4cc	.	4cc\	śpie-	pa-	.
8AA-'/ 8E-	.	.	.	.	.	.
8AA-'/ 8E-	8c/ 8a-	.	8a-/	-wa.	-da?	.
8AA-'/J 8E-	8r	.	8r	.	.	.
=11:|!	=11:|!	=11:|!	=11:|!	=11:|!	=11:|!	=11:|!
*	*	*	*	*v:3	*	*
!	!LO:TX:a:i:t=Meno mosso	!	!LO:TX:a:i:t=Wolniej	!	!	!
8AA-\L	(8.ee-\L	.	8.ee-\	Oj	.	.
((8G-\J 8c	.	.	.	.	.	.
.	16dd-\Jk	.	16dd-\	nie	.	.
4A-\)) 4e-	8cc\L	.	8cc\	w rę-	.	.
.	8b-\J)	.	8b-\	-ce	.	.
=12	=12	=12	=12	=12	=12	=12
8AA-\L	(8a-/L	.	8a-/	wte-	.	.
((8F\J 8d-	8b-/J	.	8b-/	-dy	.	.
4A-\)) 4f	8a-\L	.	8a-/	dmu-	.	.
.	8dd-\J)	.	8dd-,\	-chaj,	.	.
!!LO:PB:g=original
=13	=13	=13	=13	=13	=13	=13
8AA-/	(8e-/L	.	8e-/	Lecz	.	.
4G-\ 4c	8b-/J	.	8b-/	ser-	.	.
.	8g-/L	.	8g-/	-ce	.	.
8G-\ 8c	16f/L	.	(16f/LL	za-	.	.
.	16e-/JJ)	.	16e-/JJ)	.	.	.
=14	=14	=14	=14	=14	=14	=14
8DD-/	(4f/	.	4f/	-grze-	.	.
4A-\ 4d-	.	.	.	.	.	.
.	8a-/)	.	8a-/	-waj,	.	.
8c-X\ 8d-	8r	.	8r	.	.	.
=15	=15	=15	=15	=15	=15	=15
8BB-/	(<8.g-/L	<	8.g-/	Stań	.	.
4G-\ 4d-	.	.	.	.	.	.
.	16a-/Jk	.	16a-/	do	.	.
.	8b-\L	[	8b-/	pra-	.	.
8GG-/	8cc\J)	.	8cc\	-cy,	.	.
=16	=16	=16	=16	=16	=16	=16
8FF/	(<8cc\L	>	8cc\	jak	.	.
4D-\ 4A- 4d-	8dd-\J	.	8dd-\	ju-	.	.
.	8a-/L	.	8a-/	-na-	.	.
8D-\ 8A- 8d-	8f/J)	]	8f/	-cy	.	.
!!LO:LB:g=original
=17	=17	=17	=17	=17	=17	=17
4EE-/	(8.b-/L	.	8.b-/	I	.	.
.	16a-/Jk	.	16a-/	pio-	.	.
4G-\ 4B- 4d-	8g-/L	.	8g-/	-sen-	.	.
.	8f/J)	.	8f/	-ki	.	.
=18	=18	=18	=18	=18	=18	=18
(4AA-\ 4G-	8c/L 8e-	.	(8e-/L	śpie-	.	.
.	8a-/J	.	8a-/J)	.	.	.
4D-\) 4F	4d-/	.	4d-/	-waj!	.	.
*	*clefF4	*	*	*	*	*
=19	=19	=19	=19	=19	=19	=19
8DD-'/L 8AA-	8F'\L 8A-	mf	2r	.	.	.
8DD-'/ 8AA-	8F'\ 8B-	.	.	.	.	.
8DD-'/ 8AA-	8F'\ 8A-	>	.	.	.	.
8DD-'/J 8AA-	8F'\J 8d-	.	.	.	.	.
=20	=20	=20	=20	=20	=20	=20
2DD-;/ 2AA-	2F;\ 2d-	]	2r;	.	.	.
==	==	==	==	==	==	==
*-	*-	*-	*-	*-	*-	*-
!!!system-decoration: p1{p2}
!!!RDF**kern: > = above
!!!RDF**kern: < = below
!!!ENC: Andrzej Gręziak
!!!END: 2025-03-03
!!!ENC: Marta Lawrence
!!!END: 2025-03-18
